images/6603912.svg

<?xml version="1.0" encoding="UTF-8"?>
<svg xmlns="http://www.w3.org/2000/svg" xmlns:xlink="http://www.w3.org/1999/xlink" width="300pt" height="300pt" viewBox="0 0 300 300" version="1.1">
<defs>
<g>
<symbol overflow="visible" id="glyph0-0">
<path style="stroke:none;" d="M 0.796875 2.828125 L 0.796875 -11.28125 L 8.796875 -11.28125 L 8.796875 2.828125 Z M 1.703125 1.9375 L 7.90625 1.9375 L 7.90625 -10.390625 L 1.703125 -10.390625 Z M 1.703125 1.9375 "/>
</symbol>
<symbol overflow="visible" id="glyph0-1">
<path style="stroke:none;" d="M 6.3125 -10.59375 C 5.164062 -10.59375 4.253906 -10.164062 3.578125 -9.3125 C 2.898438 -8.457031 2.5625 -7.296875 2.5625 -5.828125 C 2.5625 -4.359375 2.898438 -3.195312 3.578125 -2.34375 C 4.253906 -1.488281 5.164062 -1.0625 6.3125 -1.0625 C 7.457031 -1.0625 8.363281 -1.488281 9.03125 -2.34375 C 9.695312 -3.195312 10.03125 -4.359375 10.03125 -5.828125 C 10.03125 -7.296875 9.695312 -8.457031 9.03125 -9.3125 C 8.363281 -10.164062 7.457031 -10.59375 6.3125 -10.59375 Z M 6.3125 -11.875 C 7.945312 -11.875 9.253906 -11.328125 10.234375 -10.234375 C 11.210938 -9.140625 11.703125 -7.671875 11.703125 -5.828125 C 11.703125 -3.984375 11.210938 -2.507812 10.234375 -1.40625 C 9.253906 -0.3125 7.945312 0.234375 6.3125 0.234375 C 4.664062 0.234375 3.351562 -0.3125 2.375 -1.40625 C 1.394531 -2.507812 0.90625 -3.984375 0.90625 -5.828125 C 0.90625 -7.671875 1.394531 -9.140625 2.375 -10.234375 C 3.351562 -11.328125 4.664062 -11.875 6.3125 -11.875 Z M 6.3125 -11.875 "/>
</symbol>
<symbol overflow="visible" id="glyph0-2">
<path style="stroke:none;" d="M 1.578125 -11.671875 L 3.703125 -11.671875 L 8.875 -1.90625 L 8.875 -11.671875 L 10.40625 -11.671875 L 10.40625 0 L 8.28125 0 L 3.109375 -9.765625 L 3.109375 0 L 1.578125 0 Z M 1.578125 -11.671875 "/>
</symbol>
<symbol overflow="visible" id="glyph0-3">
<path style="stroke:none;" d="M 1.578125 -11.671875 L 3.15625 -11.671875 L 3.15625 -6.890625 L 8.890625 -6.890625 L 8.890625 -11.671875 L 10.46875 -11.671875 L 10.46875 0 L 8.890625 0 L 8.890625 -5.5625 L 3.15625 -5.5625 L 3.15625 0 L 1.578125 0 Z M 1.578125 -11.671875 "/>
</symbol>
</g>
</defs>
<g id="surface43021">
<rect x="0" y="0" width="300" height="300" style="fill:rgb(100%,100%,100%);fill-opacity:1;stroke:none;"/>
<path style="fill:none;stroke-width:1.2;stroke-linecap:butt;stroke-linejoin:miter;stroke:rgb(0%,0%,0%);stroke-opacity:1;stroke-miterlimit:10;" d="M 30.699219 175.964844 L 48.800781 182.132812 "/>
<path style="fill:none;stroke-width:1.2;stroke-linecap:butt;stroke-linejoin:miter;stroke:rgb(100%,0%,0%);stroke-opacity:1;stroke-miterlimit:10;" d="M 48.800781 182.132812 L 66.90625 188.296875 "/>
<path style="fill:none;stroke-width:1.2;stroke-linecap:butt;stroke-linejoin:miter;stroke:rgb(100%,0%,0%);stroke-opacity:1;stroke-miterlimit:10;" d="M 66.90625 188.296875 L 81.296875 175.703125 "/>
<path style="fill:none;stroke-width:1.2;stroke-linecap:butt;stroke-linejoin:miter;stroke:rgb(0%,0%,0%);stroke-opacity:1;stroke-miterlimit:10;" d="M 81.296875 175.703125 L 95.691406 163.109375 "/>
<path style=" stroke:none;fill-rule:nonzero;fill:rgb(100%,100%,100%);fill-opacity:1;" d="M 60.90625 178.796875 L 73.90625 178.796875 L 73.90625 197.796875 L 60.90625 197.796875 Z M 60.90625 178.796875 "/>
<g style="fill:rgb(100%,0%,0%);fill-opacity:1;">
  <use xlink:href="#glyph0-1" x="60.90625" y="193.648438"/>
</g>
<path style="fill:none;stroke-width:1.2;stroke-linecap:butt;stroke-linejoin:miter;stroke:rgb(0%,0%,0%);stroke-opacity:1;stroke-miterlimit:10;" d="M 95.691406 163.109375 L 131.898438 175.445312 "/>
<path style="fill:none;stroke-width:1.2;stroke-linecap:butt;stroke-linejoin:miter;stroke:rgb(0%,0%,0%);stroke-opacity:1;stroke-miterlimit:10;" d="M 102.214844 155.824219 L 131.179688 165.695312 "/>
<path style="fill:none;stroke-width:1.2;stroke-linecap:butt;stroke-linejoin:miter;stroke:rgb(0%,0%,0%);stroke-opacity:1;stroke-miterlimit:10;" d="M 88.269531 125.585938 L 95.691406 163.109375 "/>
<path style="fill:none;stroke-width:1.2;stroke-linecap:butt;stroke-linejoin:miter;stroke:rgb(0%,0%,0%);stroke-opacity:1;stroke-miterlimit:10;" d="M 131.898438 175.445312 L 160.683594 150.257812 "/>
<path style="fill:none;stroke-width:1.2;stroke-linecap:butt;stroke-linejoin:miter;stroke:rgb(0%,0%,0%);stroke-opacity:1;stroke-miterlimit:10;" d="M 160.683594 150.257812 L 153.261719 112.734375 "/>
<path style="fill:none;stroke-width:1.2;stroke-linecap:butt;stroke-linejoin:miter;stroke:rgb(0%,0%,0%);stroke-opacity:1;stroke-miterlimit:10;" d="M 168.769531 144.761719 L 162.832031 114.742188 "/>
<path style="fill:none;stroke-width:1.2;stroke-linecap:butt;stroke-linejoin:miter;stroke:rgb(0%,0%,0%);stroke-opacity:1;stroke-miterlimit:10;" d="M 196.890625 162.59375 L 160.683594 150.257812 "/>
<path style="fill:none;stroke-width:1.2;stroke-linecap:butt;stroke-linejoin:miter;stroke:rgb(0%,0%,0%);stroke-opacity:1;stroke-miterlimit:10;" d="M 153.261719 112.734375 L 182.046875 87.546875 "/>
<path style="fill:none;stroke-width:1.2;stroke-linecap:butt;stroke-linejoin:miter;stroke:rgb(0%,0%,0%);stroke-opacity:1;stroke-miterlimit:10;" d="M 153.261719 112.734375 L 117.054688 100.398438 "/>
<path style=" stroke:none;fill-rule:nonzero;fill:rgb(0%,0%,0%);fill-opacity:1;" d="M 218.253906 99.882812 L 184.226562 81.15625 L 179.871094 93.9375 Z M 218.253906 99.882812 "/>
<path style="fill:none;stroke-width:1.2;stroke-linecap:butt;stroke-linejoin:miter;stroke:rgb(0%,0%,0%);stroke-opacity:1;stroke-miterlimit:10;" d="M 218.253906 99.882812 L 225.675781 137.40625 "/>
<path style="fill:none;stroke-width:1.2;stroke-linecap:butt;stroke-linejoin:miter;stroke:rgb(0%,0%,100%);stroke-opacity:1;stroke-miterlimit:10;" d="M 199.777344 111.085938 L 209.015625 105.484375 "/>
<path style="fill:none;stroke-width:1.2;stroke-linecap:butt;stroke-linejoin:miter;stroke:rgb(0%,0%,0%);stroke-opacity:1;stroke-miterlimit:10;" d="M 209.015625 105.484375 L 218.253906 99.882812 "/>
<path style="fill:none;stroke-width:1.2;stroke-linecap:butt;stroke-linejoin:miter;stroke:rgb(0%,0%,0%);stroke-opacity:1;stroke-miterlimit:10;" d="M 225.675781 137.40625 L 196.890625 162.59375 "/>
<path style=" stroke:none;fill-rule:nonzero;fill:rgb(0%,0%,0%);fill-opacity:1;" d="M 225.675781 137.40625 L 259.703125 156.132812 L 264.058594 143.351562 Z M 225.675781 137.40625 "/>
<path style="fill:none;stroke-width:1;stroke-linecap:butt;stroke-linejoin:miter;stroke:rgb(0%,0%,0%);stroke-opacity:1;stroke-miterlimit:10;" d="M 196.890625 162.59375 L 196.890625 162.59375 M 196.949219 165.59375 L 197.972656 165.390625 M 197.011719 168.59375 L 199.058594 168.1875 M 197.074219 171.59375 L 200.144531 170.984375 M 197.136719 174.589844 L 201.226562 173.78125 M 197.199219 177.589844 L 202.3125 176.578125 M 197.257812 180.589844 L 203.398438 179.375 M 197.320312 183.589844 L 204.480469 182.171875 M 197.382812 186.589844 L 205.566406 184.96875 M 197.445312 189.589844 L 206.652344 187.769531 M 197.507812 192.585938 L 207.734375 190.566406 M 197.566406 195.585938 L 208.820312 193.363281 M 197.628906 198.585938 L 209.902344 196.160156 M 197.6875 201.425781 L 210.929688 198.808594 "/>
<path style="fill:none;stroke-width:1.2;stroke-linecap:butt;stroke-linejoin:miter;stroke:rgb(0%,0%,0%);stroke-opacity:1;stroke-miterlimit:10;" d="M 196.890625 162.59375 L 189.09375 142.441406 "/>
<path style="fill:none;stroke-width:1.2;stroke-linecap:butt;stroke-linejoin:miter;stroke:rgb(0%,0%,0%);stroke-opacity:1;stroke-miterlimit:10;" d="M 204.308594 200.117188 L 240.515625 212.453125 "/>
<path style="fill:none;stroke-width:1.2;stroke-linecap:butt;stroke-linejoin:miter;stroke:rgb(0%,0%,0%);stroke-opacity:1;stroke-miterlimit:10;" d="M 240.515625 212.453125 L 269.300781 187.265625 "/>
<path style="fill:none;stroke-width:1.2;stroke-linecap:butt;stroke-linejoin:miter;stroke:rgb(0%,0%,0%);stroke-opacity:1;stroke-miterlimit:10;" d="M 269.300781 187.265625 L 261.882812 149.742188 "/>
<path style="fill:none;stroke-width:1.2;stroke-linecap:butt;stroke-linejoin:miter;stroke:rgb(0%,0%,0%);stroke-opacity:1;stroke-miterlimit:10;" d="M 189.09375 142.441406 L 211.191406 132.472656 "/>
<path style="fill:none;stroke-width:1.2;stroke-linecap:butt;stroke-linejoin:miter;stroke:rgb(0%,0%,0%);stroke-opacity:1;stroke-miterlimit:10;" d="M 211.191406 132.472656 L 205.484375 121.777344 "/>
<path style="fill:none;stroke-width:1.2;stroke-linecap:butt;stroke-linejoin:miter;stroke:rgb(0%,0%,100%);stroke-opacity:1;stroke-miterlimit:10;" d="M 205.484375 121.777344 L 199.777344 111.085938 "/>
<path style=" stroke:none;fill-rule:nonzero;fill:rgb(100%,100%,100%);fill-opacity:1;" d="M 187.777344 101.585938 L 211.777344 101.585938 L 211.777344 120.585938 L 187.777344 120.585938 Z M 187.777344 101.585938 "/>
<g style="fill:rgb(0%,0%,100%);fill-opacity:1;">
  <use xlink:href="#glyph0-2" x="187.777344" y="116.4375"/>
  <use xlink:href="#glyph0-3" x="199.746094" y="116.4375"/>
</g>
<path style="fill:none;stroke-width:1.2;stroke-linecap:butt;stroke-linejoin:miter;stroke:rgb(0%,0%,0%);stroke-opacity:1;stroke-miterlimit:10;" d="M 117.054688 100.398438 L 88.269531 125.585938 "/>
<path style="fill:none;stroke-width:1.2;stroke-linecap:butt;stroke-linejoin:miter;stroke:rgb(0%,0%,0%);stroke-opacity:1;stroke-miterlimit:10;" d="M 120.105469 109.691406 L 97.074219 129.84375 "/>
</g>
</svg>

<svg xmlns="http://www.w3.org/2000/svg" xmlns:xlink="http://www.w3.org/1999/xlink" width="300pt" height="300pt" viewBox="0 0 300 300"><defs><symbol overflow="visible"><path d="M.797 2.828v-14.11h8V2.83zm.906-.89h6.203v-12.33H1.703zm0 0"/></symbol><symbol overflow="visible" id="a"><path d="M6.313-10.594c-1.15 0-2.06.43-2.735 1.28-.68.857-1.015 2.017-1.015 3.486 0 1.47.335 2.633 1.015 3.484.676.856 1.586 1.28 2.735 1.28 1.144.002 2.05-.424 2.718-1.28.665-.85 1-2.015 1-3.484 0-1.47-.335-2.63-1-3.484-.667-.852-1.573-1.282-2.717-1.282zm0-1.28c1.632 0 2.94.546 3.92 1.64.978 1.093 1.47 2.562 1.47 4.406 0 1.844-.492 3.32-1.47 4.422-.98 1.093-2.288 1.64-3.92 1.64-1.65 0-2.96-.546-3.938-1.64-.98-1.102-1.47-2.578-1.47-4.422 0-1.844.49-3.313 1.47-4.406.977-1.094 2.29-1.64 3.938-1.64zm0 0"/></symbol><symbol overflow="visible" id="b"><path d="M1.578-11.672h2.125l5.172 9.766v-9.766h1.53V0H8.282L3.11-9.766V0H1.577zm0 0"/></symbol><symbol overflow="visible" id="c"><path d="M1.578-11.672h1.578v4.78H8.89v-4.78h1.58V0H8.89v-5.563H3.157V0H1.578zm0 0"/></symbol></defs><g><path fill="#fff" d="M0 0h300v300H0z"/><path d="M30.7 175.965l18.1 6.168" stroke-width="1.2" stroke="#000" stroke-miterlimit="10" fill="none"/><path d="M48.8 182.133l18.106 6.164M66.906 188.297l14.39-12.594" stroke-width="1.2" stroke="#f00" stroke-miterlimit="10" fill="none"/><path d="M81.297 175.703L95.69 163.11" stroke-width="1.2" stroke="#000" stroke-miterlimit="10" fill="none"/><path d="M60.906 178.797h13v19h-13zm0 0" fill="#fff"/><use xlink:href="#a" x="60.906" y="193.648" fill="#f00"/><path d="M95.69 163.11l36.208 12.335M102.215 155.824l28.965 9.87M88.27 125.586l7.42 37.523M131.898 175.445l28.786-25.187M160.684 150.258l-7.422-37.524M168.77 144.762l-5.938-30.02M196.89 162.594l-36.206-12.336M153.262 112.734l28.785-25.187M153.262 112.734l-36.207-12.336" stroke-width="1.2" stroke="#000" stroke-miterlimit="10" fill="none"/><path d="M218.254 99.883l-34.027-18.727-4.356 12.78zm0 0"/><path d="M218.254 99.883l7.422 37.523" stroke-width="1.2" stroke="#000" stroke-miterlimit="10" fill="none"/><path d="M199.777 111.086l9.24-5.602" stroke-width="1.2" stroke="#00f" stroke-miterlimit="10" fill="none"/><path d="M209.016 105.484l9.238-5.6M225.676 137.406l-28.785 25.188" stroke-width="1.2" stroke="#000" stroke-miterlimit="10" fill="none"/><path d="M225.676 137.406l34.027 18.727 4.356-12.78zm0 0"/><path d="M196.89 162.594m.06 3l1.023-.203m-.96 3.204l2.046-.406m-1.986 3.406l3.07-.61m-3.007 3.606l4.09-.81m-4.028 3.81l5.113-1.012m-5.055 4.012l6.14-1.215m-6.078 4.215l7.16-1.418m-7.097 4.418l8.183-1.62m-8.12 4.62l9.206-1.82m-9.144 4.816l10.226-2.02m-10.168 5.02l11.254-2.223m-11.19 5.223l12.272-2.426m-12.214 5.266l13.242-2.617" stroke="#000" stroke-miterlimit="10" fill="none"/><path d="M196.89 162.594l-7.796-20.153M204.31 200.117l36.206 12.336M240.516 212.453l28.785-25.187M269.3 187.266l-7.417-37.524M189.094 142.44l22.097-9.967M211.19 132.473l-5.706-10.696" stroke-width="1.2" stroke="#000" stroke-miterlimit="10" fill="none"/><path d="M205.484 121.777l-5.707-10.69" stroke-width="1.2" stroke="#00f" stroke-miterlimit="10" fill="none"/><path d="M187.777 101.586h24v19h-24zm0 0" fill="#fff"/><g fill="#00f"><use xlink:href="#b" x="187.777" y="116.438"/><use xlink:href="#c" x="199.746" y="116.438"/></g><path d="M117.055 100.398L88.27 125.586M120.105 109.69l-23.03 20.154" stroke-width="1.2" stroke="#000" stroke-miterlimit="10" fill="none"/></g></svg>
